X:11803
T:Morrison's
R:Reel
B:Tuneworks Tunebook (https://www.tuneworks.co.uk/)
G:tuneworks
Z:Jon Warbrick <jon.warbrick@googlemail.com>
M:6/8
L:1/8
K:D
|: "Em"!turn!E3 !turn!B3 | EBE "D"DAFD | "Em"EDE B2 c | "D"dcB AFD | 
"Em"!turn!E3 !turn!B3 | EBE "D"AFD | "Em"!turn!G3 FGA | "D"dAG FED  :|
|: "Em"Bee fee | aee ged | "Em"Bee fee | [1 "D"a2 g  fed | 
"Em"Bee fee | aee fef| "Em"gfe d2 A | "D"BAG FED :|
[2 "D"a2f def | "C"g3 gfe | def g2 d | "Em"edc d2 A | "D"BAG FED |]